tools/download-figma-icons/icons/outlined-large/charging-station.svg

<svg xmlns="http://www.w3.org/2000/svg" width="64" height="64" fill="none" viewBox="0 0 64 64"><path fill="currentColor" fill-rule="evenodd" d="M38 61H8V7.605A4.61 4.61 0 0 1 12.605 3h20.79A4.61 4.61 0 0 1 38 7.605zm20.584-43.037-11-11.5a1.5 1.5 0 1 0-2.168 2.074L50 13.329v5.921c0 2.895 2.019 5.25 4.5 5.25H56V53c0 2.206-1.794 4-4 4s-4-1.794-4-4c0-3.859-3.141-7-7-7V7.605C41 3.412 37.588 0 33.395 0h-20.79C8.412 0 5 3.412 5 7.605V62.5A1.5 1.5 0 0 0 6.5 64h33a1.5 1.5 0 0 0 1.5-1.5V49c2.206 0 4 1.794 4 4 0 3.859 3.141 7 7 7s7-3.141 7-7V19c0-.387-.149-.758-.416-1.037M27.5 40h-6.389l5.685-9.744a1.5 1.5 0 0 0-2.592-1.512l-7 12A1.5 1.5 0 0 0 18.5 43h6.268l-5.534 8.694A1.503 1.503 0 0 0 20.499 54c.495 0 .98-.245 1.267-.694l7-11A1.5 1.5 0 0 0 27.5 40M32 20H14V9h18zm-18.5 3h19c1.379 0 2.5-1.121 2.5-2.5v-12C35 7.121 33.879 6 32.5 6h-19A2.5 2.5 0 0 0 11 8.5v12c0 1.379 1.121 2.5 2.5 2.5" clip-rule="evenodd"/></svg>

<svg width="64" height="64" viewBox="0 0 64 64" fill="none" xmlns="http://www.w3.org/2000/svg">
<path fill-rule="evenodd" clip-rule="evenodd" d="M38 61H8V7.605C8 5.066 10.066 3 12.605 3H33.395C35.934 3 38 5.066 38 7.605V61ZM58.584 17.963L47.584 6.463C47.01 5.864 46.061 5.843 45.463 6.416C44.864 6.988 44.844 7.938 45.416 8.537L50 13.329V19.25C50 22.145 52.019 24.5 54.5 24.5H56V53C56 55.206 54.206 57 52 57C49.794 57 48 55.206 48 53C48 49.141 44.859 46 41 46V7.605C41 3.412 37.588 0 33.395 0H12.605C8.412 0 5 3.412 5 7.605V62.5C5 63.328 5.672 64 6.5 64H39.5C40.328 64 41 63.328 41 62.5V49C43.206 49 45 50.794 45 53C45 56.859 48.141 60 52 60C55.859 60 59 56.859 59 53V23V19.5V19C59 18.613 58.851 18.242 58.584 17.963ZM27.5 40H21.111L26.796 30.256C27.213 29.54 26.972 28.622 26.256 28.204C25.543 27.788 24.622 28.028 24.204 28.744L17.204 40.744C16.934 41.208 16.932 41.781 17.199 42.247C17.467 42.713 17.963 43 18.5 43H24.768L19.234 51.694C18.79 52.394 18.996 53.32 19.694 53.766C19.944 53.925 20.223 54 20.499 54C20.994 54 21.479 53.755 21.766 53.306L28.766 42.306C29.06 41.844 29.078 41.258 28.814 40.778C28.552 40.298 28.048 40 27.5 40ZM32 20H14V9H32V20ZM13.5 23H32.5C33.879 23 35 21.879 35 20.5V8.5C35 7.121 33.879 6 32.5 6H13.5C12.121 6 11 7.121 11 8.5V20.5C11 21.879 12.121 23 13.5 23Z" fill="black"/>
</svg>
